X:358
T:Braes of Marr. RH.358, The
R:strathspey
B:Rev.R.Harrison's MS,c1815,Cumbria
N:note "A Strathspey" in MS.
O:England
A:Temple Sowerby,Cumbria
Z:vmp.Simon Wilson. Review PJH, 2008.
M:C|
L:1/8
Q:1/2=70
K:D
A|F<AA>B d>ef>e|d>BB>A B>dBA|\
F<AA>B d>ef>d|e<df>de2d:|
|:A|F<AA>D F>DA>D|G<BB>F G>EB>E|\
F<AA>D F>DA>F|G<AF>dE2D:|
|:F<AA>B d>ef>d|d<BB>A e<BB>A|\
F<AA>B d>ef>d|e<fa>fe2d:|
g|f<aa>d f<da>d|g<bb>e g>eb>e|\
f<aa>d f<da>d|g>bf>ae2dg|
f<aa>d f<da>d|g<bb>e g>eb>e|\
f<ae>f d>eB>d|A<dFdE2D|]

